X:1
T:Living in the Sunshine
T:Living in the Sunshine
T:Guy Clare Latchaw, 1921
T:Thomas O. Crouse
T:Public Domain Courtesy of the Cyber Hymnal™
T:Public Domain Courtesy of the Cyber Hymnal™
C:Guy Clare Latchaw, 1921
Z:Public Domain
Z:Courtesy of the Cyber Hymnal™
%%score ( 1 2 ) ( 3 4 )
L:1/8
Q:1/4=85
M:4/4
K:Ab
V:1 treble 
V:2 treble 
V:3 bass 
V:4 bass 
V:1
 [CE][CF] | [CE]>[CA] [CG][CA] [CB][CA][CG][CF] | [CE]>[CF] [CA][CF] [DG]2 [DE][DF] | %3
w: 1.~I am|liv- ing in the sun- shine Of my|Sav- ior’s per- fect love, And by|
w: 2.~O, this|sun- shine! how its glo- ry Fills my|heart with con- stant peace; And from|
w: 3.~Glad- ly|now my feet are run- ning On the|er- rands of my Lord; And to|
 [DG]>[D^F] [DG][DA] [DB][DG][DA][DB] | [Ec]>[EA] [DF][DA] [CE]2 [CE][C=D] | %5
w: faith I see Him seat- ed On His|glor- ious throne a- bove. There, ap-|
w: bond- age with- out mea- sure It has|brought me glad re- lease. Once life’s|
w: do or suf- fer for Him, Deep con-|tent- ment doth af- ford. At each|
 [CF]>[CE] [CA][CG] [CB][CA][EG][EA] | [FB]>[FB] [Fc][Fc] !fermata![Fd]2 [F=d][Fd] | %7
w: proved of God the Fa- ther, He for-|ev- er pleads for me; And His|
w: lit- tle cares would fret me, Threat- ening|ills my soul af- fright, But the|
w: step the way grows bright- er, Gold- en|glo- ry fills the sky; In the|
 [Ee]>[Ed] [Ec][Ed] [=Dc][DB][D=A][DB] | [Dc]>[DB] [DF][DG] [CA]3 ||"^Refrain" [Ee] | %10
w: faith- ful word de- clar- eth There is|par- don full and free.||
w: sweet- ness of this sun- shine Makes the|hea- vy cross- es light.|O|
w: prom- ise of His com- ing, Our re-|demp- tion draw- eth nigh.||
 [Ge]3 [Gd] [Gc]2 [EB]2 | [EA]>[EB] [Ec][CA] [CE]3 [Ee] | [Ge]3 [Gd] [Gc]2 [EB]2 | %13
w: |||
w: come in- to the|sun- shine of His love, Re-|ceive the great sal-|
w: |||
"^riten." [EA]>[EG] [FA][FB] !fermata![=Ec]3 _E | [DE]F[DE]F E2 (z D)E | [CE]F[CE]F ([CE] z C)E | %16
w: |||
w: va- tion from a- bove; It|gives you glad re- lease, * And|* fills your heart with * peace;|
w: |||
 [DF]>[EG] [FA][EB] [Ec] [Ee]2 [Ee] | [Ge]>[Fd] [Ec][DB] [CA]3 z |] %18
w: ||
w: O come in- to the sun- shine,|The sun- shine of His|
w: ||
V:2
 x2 | x8 | x8 | x8 | x8 | x8 | x8 | x8 | x7 || x | x8 | x8 | x8 | x8 | x4 D x4 | x8 | x8 | x8 |] %18
V:3
 [A,,A,][A,,A,] | [A,,A,]>[A,,A,] [A,,A,][A,,A,] [A,,A,][A,,A,][A,,A,][A,,A,] | %2
w: ~ ~|~ ~ ~ ~ ~ ~ ~ ~|
 A,>A, A,A, [E,B,]2 [E,G,][E,A,] | [E,B,]>[E,=A,] [E,B,][E,_A,] [E,G,][E,B,][E,A,][E,G,] | %4
w: ~ ~ ~ ~ ~ ~ ~|~ ~ ~ ~ ~ ~ ~ ~|
 [A,,A,]>[C,A,] [D,A,][F,A,] A,2 [A,,A,][A,,A,] | %5
w: ~ ~ ~ ~ ~ ~ ~|
 [A,,A,]>[A,,A,] [A,,A,][A,,A,] [A,,A,][A,,A,][A,C][A,C] | %6
w: ~ ~ ~ ~ ~ ~ ~ ~|
 [D,B,]>[D,B,] [C,=A,][C,A,] !fermata![B,,B,]2 [B,,_A,][B,,A,] | %7
w: ~ ~ ~ ~ ~ ~ ~|
 [E,G,]>[E,G,] [E,G,][E,G,] [B,,A,][B,,A,][B,,F,][B,,A,] | [E,G,]>[E,G,] [E,B,][E,B,] [A,,A,]3 || %9
w: ~ ~ ~ ~ ~ ~ ~ ~|~ ~ ~ ~ ~|
 [A,C] | [E,B,]3 [E,F] [E,E]2 [E,D]2 | [A,C] z [E,A,] z [A,,A,]3 [A,C] | %12
w: ~|~ ~ ~ His|love, His love ~|
 [E,B,]3 [E,B,] [E,E]2 [G,D]2 | [A,C] z [F,C] z !fermata![C,C]3 z | %14
w: ~ sal- va- tion|from a- bove;|
 [E,G,] z [E,G,] z [E,G,] z [B,,G,] z x | [A,,A,] z [E,A,] z [C,A,] z [A,,A,] z | %16
w: Come, come, come come,|Come, come, come come.|
 [D,A,]>[D,A,] [D,A,][B,,G,] [A,,A,] [A,C]2 [A,C] | [E,B,]>[E,B,] [E,G,][E,G,] [A,,A,]3 z |] %18
w: ||
V:4
 x2 | x8 | A,>A, A,A, x4 | x8 | x4 A,2 x2 | x8 | x8 | x8 | x7 || x | x8 | x8 | x8 | x8 | x9 | x8 | %16
 x8 | x8 |] %18

